X: 900
T: Jackson's Cravat.
B:O'Neill's 900
N:"collected by F. O'Neill."
Z:Transcribed by Tom Keays (htkeays@mailbox.syr.edu)
Z:abc 1.6
M:6/8
R:Jig
L:1/8
K:G
f | gdc BdB | cec BdB | gdc BdB | ecA A2f |
gdc BdB | cec BdB | G2g gfg | dBG G2 :|
|| f | gfg efg | abg fed | gfe dcB | ecA A2f |
gfg efg | abg fed | gfe dec | BGG G2 :|


